X: 11671
T: Eileen O'Riordan's
R: slide
M: 12/8
K: Amixolydian
|:E2 A ABA G2 A Bcd|e2 A ABA G2 A F2 G|
E2 A ABA G2 A Bcd|efe dcB A3 A3:|
|:e3 efe d3 c2 d|e2 A ABA G2 A F2 G|
E2 A ABA G2 A Bcd|efe dcB A3 A3:|

